X:1
T:Let the Light Stream In
T:Let the Light Stream In
T:William James Kirkpatrick
T:Frances Jane (Fanny) Crosby, 1891
T:Public Domain Courtesy of the Cyber Hymnal™
T:Public Domain Courtesy of the Cyber Hymnal™
C:William James Kirkpatrick
Z:Public Domain
Z:Courtesy of the Cyber Hymnal™
%%score ( 1 2 ) ( 3 4 )
L:1/8
Q:1/4=90
M:4/4
K:Db
V:1 treble 
V:2 treble 
V:3 bass 
V:4 bass 
V:1
 [FA] | [FA] ([DF]/[EG]/) [FA][Fd] [Fd]3 [GB] | [FA][DF]D[DF] [CE]3 [CE] | %3
w: 1.~O,|let the * light stream in, The|glo- rious light of day, That|
w: 2.~O,|let the * light stream in, The|light of Gos- pel day, That|
w: 3.~O,|let the * light stream in Where|homes are dark and drear, The|
 [EG]>[DF] [CE][CE] [DA]>[DG] [DF][Fd] | [Ec][EB][EA][E=G] [EA]3 A | %5
w: o’er the face of na- ture sheds A|bright and gen- ial ray; We|
w: shin- eth through the right- eous- ness Of|Christ, the Truth, the Way; ’Twill|
w: light of God’s e- tern- al love, That|con- quers ev- ery fear; Its|
 [Ge]>[Gd] [Gc][GB] [FA]>[EG] [DF][FA] | [GB][GB] [Ge]>[Gd] [Gc]3 A | %7
w: need its beams our steps to guide, Ere|dai- ly toils be- gin, Then|
w: teach us how by faith in Him Im-|mor- tal souls to win, Then|
w: gen- tle smile new joys may wake, Where|sor- row long hath been, Then|
 [Af]>[Ae] [Ad][Ac] [Ge][Gd][Gc][GB] | [FA]>[Fd] [Fd][Ec] [Fd]3 ||"^Refrain" z | %10
w: o- pen wide the door of prayer, And|let the light stream in.||
w: o- pen wide our will- ing hearts, And|let the light stream in.||
w: o- pen wide the door of hope, And|let the light shine in.||
 [FA]>[FA] [Fd][Ac] [GB]4 | [GB]>[GB] [Ge][=Gd] [Ac]3 A | %12
w: Let the light stream in,|Let the light stream in, Then|
w: Let the light stream in,|Let the light stream in, Then|
w: Let the light stream in,|Let the light stream in, Then|
 [Af]>[Ge] [Fd][FA] [Af]>[Ge] [Fd]/A/A/A/ | B2 d2 [Fd]3 |] %14
w: o- pen wide the door of prayer, And let the|light stream in.|
w: o- pen wide our will- ing hearts, And let the|light stream in.|
w: o- pen wide the door of hope, And let the|light stream in.|
V:2
 x | x8 | x2 D x5 | x8 | x7 A | x8 | x7 A | x8 | x7 || x | x8 | x7 A | x13/2 A/A/A/ | %13
 (GG3/4) (G/4DE) x3 |] %14
V:3
 [D,D] | [D,D][D,A,][D,D][D,A,] [D,A,]3 [D,D] | [D,D][D,A,][F,A,][D,A,] [A,,A,]3 [A,,A,] | %3
w: ~|~ ~ ~ ~ ~ ~|~ ~ ~ ~ ~ ~|
 [A,,A,]>[A,,A,] [A,,A,][G,A,] [F,A,]>[E,A,] [D,A,][D,A,] | [E,A,][E,D][E,C][E,B,] [A,,C]3 A, | %5
w: ~ ~ ~ ~ ~ ~ ~ ~|~ ~ ~ ~ ~ ~|
 [A,C]>[A,D] [A,E][A,E] [A,,A,]>[A,,A,] [D,A,][D,D] | [G,D][G,D] [G,B,]>[F,E] [A,E]3 A, | %7
w: ~ ~ ~ ~ ~ ~ ~ ~|~ ~ ~ ~ ~ ~|
 [D,D]>[E,D] [F,D][F,D] [G,B,][G,B,][G,D][G,D] | [A,D]>A, A,[A,,A,] [D,A,]3 || z | %10
w: ~ ~ ~ ~ ~ ~ ~ ~|~ ~ ~ ~ ~||
 z2 z [F,D]/>[F,D]/ [G,D][G,D] [G,D]2 | z2 z [E,E]/>[E,E]/ [A,E][A,E][A,E]A, | %12
w: Let the light stream in,|Let the light stream in, ~|
 [D,D]>[D,A,] [D,A,][D,D] [D,D]>[D,A,] [D,A,]/[F,D]/[F,D]/[F,D]/ | DB,__B, [D,A,]3 x |] %14
w: ~ ~ ~ ~ ~ ~ ~ ~ ~ ~|~ let the light|
V:4
 x | x8 | x8 | x8 | x7 A, | x8 | x7 A, | x8 | x3/2 A,/ A, x4 || x | x8 | x7 A, | x8 | %13
 G,2 D/>D/ G,2 x2 |] %14

